X: 14824
T: Garden On Bayard Lane, The
R: reel
M: 4/4
K: Gmajor
|:Bdde dged|BAGA GAEG|Bdde dged|BAGA E3c|
Bdde dged|BAGA GAEG|D3d gagB|eBdA BGG2:|
|:FEFD A2FG|ABcA BGAG|FEFD A2FG|ABcA G2AG|
FEFD A2FG|ABcA BGAG|FEFD A2FG|1 ABcA G2AG:|2 ABcA G3||

